Badges/Roblox-Styled/Original/link-other-works.svg

<svg width="120" height="32" viewBox="0 0 120 32" fill="none" xmlns="http://www.w3.org/2000/svg">
<g filter="url(#filter0_i_24_224)">
<rect width="120" height="32" rx="4" fill="#335FFF"/>
<path d="M21.5 15C21.6823 15 21.849 15.0443 22 15.1328C22.1562 15.2214 22.2786 15.3438 22.3672 15.5C22.4557 15.651 22.5 15.8177 22.5 16V21C22.5 21.1823 22.4557 21.349 22.3672 21.5C22.2786 21.6562 22.1562 21.7786 22 21.8672C21.849 21.9557 21.6823 22 21.5 22H10.5C10.3177 22 10.1484 21.9557 9.99219 21.8672C9.84115 21.7786 9.72135 21.6562 9.63281 21.5C9.54427 21.349 9.5 21.1823 9.5 21V16C9.5 15.8177 9.54427 15.651 9.63281 15.5C9.72135 15.3438 9.84115 15.2214 9.99219 15.1328C10.1484 15.0443 10.3177 15 10.5 15H21.5ZM21 12.5C21.1406 12.5 21.2578 12.5495 21.3516 12.6484C21.4505 12.7422 21.5 12.8594 21.5 13C21.5 13.1406 21.4505 13.2604 21.3516 13.3594C21.2578 13.4531 21.1406 13.5 21 13.5H11C10.8594 13.5 10.7396 13.4531 10.6406 13.3594C10.5469 13.2604 10.5 13.1406 10.5 13C10.5 12.8594 10.5469 12.7422 10.6406 12.6484C10.7396 12.5495 10.8594 12.5 11 12.5H21ZM19.5 10C19.6406 10 19.7578 10.0495 19.8516 10.1484C19.9505 10.2422 20 10.3594 20 10.5C20 10.6406 19.9505 10.7604 19.8516 10.8594C19.7578 10.9531 19.6406 11 19.5 11H12.5C12.3594 11 12.2396 10.9531 12.1406 10.8594C12.0469 10.7604 12 10.6406 12 10.5C12 10.3594 12.0469 10.2422 12.1406 10.1484C12.2396 10.0495 12.3594 10 12.5 10H19.5Z" fill="white"/>
<path d="M32.037 20.11C29.848 20.11 28.374 18.614 28.374 16.15C28.374 13.686 29.837 12.19 32.037 12.19C34.237 12.19 35.689 13.686 35.689 16.15C35.689 18.614 34.237 20.11 32.037 20.11ZM32.037 18.658C33.401 18.658 34.171 17.778 34.171 16.15C34.171 14.522 33.401 13.642 32.037 13.642C30.673 13.642 29.892 14.522 29.892 16.15C29.892 17.778 30.673 18.658 32.037 18.658ZM39.5943 18.812C39.9243 18.812 40.1773 18.768 40.4743 18.691V19.934C40.1333 20.044 39.7923 20.11 39.3743 20.11C38.0763 20.11 37.3173 19.373 37.3173 17.965V15.446H36.3713V14.236H37.3173V12.74H38.7253V14.236H40.3533V15.446H38.7253V17.943C38.7253 18.526 39.0773 18.812 39.5943 18.812ZM42.7668 20H41.3588V12.19H42.7668V15.05L42.9428 15.116C43.2178 14.566 43.7458 14.126 44.6038 14.126C45.8908 14.126 46.5728 14.995 46.5728 16.293V20H45.1648V16.667C45.1648 15.798 44.7468 15.424 44.0098 15.424C43.4268 15.424 42.9648 15.798 42.7668 16.194V20ZM50.594 20.11C48.823 20.11 47.668 18.911 47.668 17.129C47.668 15.347 48.823 14.126 50.473 14.126C52.255 14.126 53.146 15.347 53.146 17.052V17.547H49.087C49.208 18.449 49.78 18.834 50.594 18.834C51.188 18.834 51.639 18.647 52.09 18.273L52.937 19.285C52.321 19.857 51.441 20.11 50.594 20.11ZM50.473 15.314C49.769 15.314 49.307 15.677 49.131 16.403H51.749C51.661 15.71 51.199 15.314 50.473 15.314ZM55.6574 20H54.2494V14.236H55.6574V15.05L55.8334 15.116C56.1524 14.489 56.6804 14.126 57.3624 14.126C57.5274 14.126 57.7034 14.148 57.8574 14.181V15.6C57.6374 15.523 57.3624 15.468 57.0104 15.468C56.4054 15.468 55.8994 15.842 55.6574 16.348V20ZM64.9002 20H62.5242L60.9622 12.3H62.6342L63.6132 18.174H63.7892L64.8892 12.3H67.2652L68.3652 18.174H68.5412L69.5202 12.3H71.1922L69.6302 20H67.2542L66.1652 13.95H65.9892L64.9002 20ZM74.4076 20.11C72.6586 20.11 71.5586 18.9 71.5586 17.118C71.5586 15.336 72.6586 14.126 74.4076 14.126C76.1566 14.126 77.2566 15.336 77.2566 17.118C77.2566 18.9 76.1566 20.11 74.4076 20.11ZM74.4186 18.812C75.2546 18.812 75.8266 18.196 75.8266 17.118C75.8266 16.04 75.2546 15.424 74.4186 15.424C73.5826 15.424 72.9886 16.04 72.9886 17.118C72.9886 18.196 73.5826 18.812 74.4186 18.812ZM79.8059 20H78.3979V14.236H79.8059V15.05L79.9819 15.116C80.3009 14.489 80.8289 14.126 81.5109 14.126C81.6759 14.126 81.8519 14.148 82.0059 14.181V15.6C81.7859 15.523 81.5109 15.468 81.1589 15.468C80.5539 15.468 80.0479 15.842 79.8059 16.348V20ZM87.9046 14.236L85.8916 16.92V17.052L87.9046 20H86.2436L84.5496 17.569H84.2746V20H82.8666V12.19H84.2746V16.392H84.5496L86.1446 14.236H87.9046ZM90.6154 20.11C89.6254 20.11 88.8774 19.758 88.2284 19.23L88.9764 18.218C89.4494 18.625 89.9884 18.9 90.6154 18.9C91.2094 18.9 91.5284 18.702 91.5284 18.339C91.5284 17.976 91.2644 17.866 90.8244 17.778L90.0874 17.624C89.0864 17.415 88.4924 16.92 88.4924 15.974C88.4924 14.83 89.3174 14.126 90.6484 14.126C91.4844 14.126 92.2434 14.379 92.8374 14.918L92.0564 15.886C91.6274 15.534 91.1654 15.336 90.6264 15.336C90.2194 15.336 89.8564 15.49 89.8564 15.82C89.8564 16.084 90.0324 16.26 90.5934 16.381L91.4074 16.557C92.2764 16.744 92.9254 17.195 92.9254 18.152C92.9254 19.384 92.0124 20.11 90.6154 20.11Z" fill="white"/>
<path d="M103.625 11.1875C103.781 11.1875 103.914 11.2422 104.023 11.3516C104.133 11.4609 104.188 11.5938 104.188 11.75C104.188 11.9062 104.133 12.0391 104.023 12.1484C103.914 12.2578 103.781 12.3125 103.625 12.3125H100.062V20.1875H107.938V16.625C107.938 16.4688 107.992 16.3359 108.102 16.2266C108.211 16.1172 108.344 16.0625 108.5 16.0625C108.656 16.0625 108.789 16.1172 108.898 16.2266C109.008 16.3359 109.062 16.4688 109.062 16.625V20.375C109.062 20.543 109.02 20.6992 108.934 20.8438C108.852 20.9883 108.738 21.1016 108.594 21.1836C108.449 21.2695 108.293 21.3125 108.125 21.3125H99.875C99.707 21.3125 99.5508 21.2695 99.4062 21.1836C99.2617 21.1016 99.1465 20.9883 99.0605 20.8438C98.9785 20.6992 98.9375 20.543 98.9375 20.375V12.125C98.9375 11.957 98.9785 11.8008 99.0605 11.6562C99.1465 11.5117 99.2617 11.3984 99.4062 11.3164C99.5508 11.2305 99.707 11.1875 99.875 11.1875H103.625ZM108.5 11.1875C108.656 11.1875 108.789 11.2422 108.898 11.3516C109.008 11.4609 109.062 11.5938 109.062 11.75V14C109.062 14.1562 109.008 14.2891 108.898 14.3984C108.789 14.5078 108.656 14.5625 108.5 14.5625C108.344 14.5625 108.211 14.5078 108.102 14.3984C107.992 14.2891 107.938 14.1562 107.938 14V13.1094L104.398 16.6484C104.289 16.7578 104.156 16.8125 104 16.8125C103.844 16.8125 103.711 16.7578 103.602 16.6484C103.492 16.5391 103.438 16.4062 103.438 16.25C103.438 16.0938 103.492 15.9609 103.602 15.8516L107.141 12.3125H106.25C106.094 12.3125 105.961 12.2578 105.852 12.1484C105.742 12.0391 105.688 11.9062 105.688 11.75C105.688 11.5938 105.742 11.4609 105.852 11.3516C105.961 11.2422 106.094 11.1875 106.25 11.1875H108.5Z" fill="white"/>
</g>
<defs>
<filter id="filter0_i_24_224" x="0" y="-2" width="120" height="34" filterUnits="userSpaceOnUse" color-interpolation-filters="sRGB">
<feFlood flood-opacity="0" result="BackgroundImageFix"/>
<feBlend mode="normal" in="SourceGraphic" in2="BackgroundImageFix" result="shape"/>
<feColorMatrix in="SourceAlpha" type="matrix" values="0 0 0 0 0 0 0 0 0 0 0 0 0 0 0 0 0 0 127 0" result="hardAlpha"/>
<feOffset dy="-2"/>
<feGaussianBlur stdDeviation="1.65"/>
<feComposite in2="hardAlpha" operator="arithmetic" k2="-1" k3="1"/>
<feColorMatrix type="matrix" values="0 0 0 0 1 0 0 0 0 1 0 0 0 0 1 0 0 0 0.11 0"/>
<feBlend mode="normal" in2="shape" result="effect1_innerShadow_24_224"/>
</filter>
</defs>
</svg>

<svg xmlns="http://www.w3.org/2000/svg" width="120" height="32" fill="none">
  <g filter="url(#a)">
    <rect width="120" height="32" fill="#335fff" rx="4"/>
    <path fill="#fff" d="M21.5 15a.97.97 0 0 1 .5.133.96.96 0 0 1 .367.367.97.97 0 0 1 .133.5v5a.97.97 0 0 1-.133.5.96.96 0 0 1-.367.367.97.97 0 0 1-.5.133h-11q-.274 0-.508-.133a1 1 0 0 1-.36-.367.97.97 0 0 1-.132-.5v-5a.97.97 0 0 1 .133-.5.97.97 0 0 1 .867-.5zm-.5-2.5q.21 0 .352.148A.47.47 0 0 1 21.5 13a.49.49 0 0 1-.5.5H11a.5.5 0 0 1-.36-.14.5.5 0 0 1-.14-.36q0-.21.14-.352A.5.5 0 0 1 11 12.5zM19.5 10q.21 0 .352.148A.47.47 0 0 1 20 10.5a.49.49 0 0 1-.5.5h-7a.5.5 0 0 1-.36-.14.5.5 0 0 1-.14-.36q0-.21.14-.352A.5.5 0 0 1 12.5 10zm12.537 10.11c-2.189 0-3.663-1.496-3.663-3.96s1.463-3.96 3.663-3.96 3.652 1.496 3.652 3.96-1.452 3.96-3.652 3.96m0-1.452c1.364 0 2.134-.88 2.134-2.508s-.77-2.508-2.134-2.508-2.145.88-2.145 2.508.781 2.508 2.145 2.508m7.557.154c.33 0 .583-.044.88-.121v1.243c-.34.11-.682.176-1.1.176-1.298 0-2.057-.737-2.057-2.145v-2.519h-.946v-1.21h.946V12.74h1.408v1.496h1.628v1.21h-1.628v2.497c0 .583.352.869.87.869M42.767 20h-1.408v-7.81h1.408v2.86l.176.066c.275-.55.803-.99 1.66-.99 1.288 0 1.97.869 1.97 2.167V20h-1.408v-3.333c0-.869-.418-1.243-1.155-1.243-.583 0-1.045.374-1.243.77zm7.827.11c-1.771 0-2.926-1.199-2.926-2.981s1.155-3.003 2.805-3.003c1.782 0 2.673 1.221 2.673 2.926v.495h-4.059c.121.902.693 1.287 1.507 1.287.594 0 1.045-.187 1.496-.561l.847 1.012c-.616.572-1.496.825-2.343.825m-.121-4.796c-.704 0-1.166.363-1.342 1.089h2.618c-.088-.693-.55-1.089-1.276-1.089M55.657 20H54.25v-5.764h1.408v.814l.176.066c.32-.627.847-.99 1.53-.99.164 0 .34.022.494.055V15.6a2.5 2.5 0 0 0-.847-.132c-.605 0-1.11.374-1.353.88zm9.243 0h-2.376l-1.562-7.7h1.672l.98 5.874h.175l1.1-5.874h2.376l1.1 5.874h.176l.98-5.874h1.671L69.63 20h-2.376l-1.089-6.05h-.176zm9.508.11c-1.75 0-2.85-1.21-2.85-2.992s1.1-2.992 2.85-2.992 2.849 1.21 2.849 2.992-1.1 2.992-2.85 2.992m.01-1.298c.837 0 1.409-.616 1.409-1.694s-.572-1.694-1.408-1.694-1.43.616-1.43 1.694.594 1.694 1.43 1.694M79.807 20h-1.408v-5.764h1.408v.814l.176.066c.319-.627.847-.99 1.529-.99.165 0 .34.022.495.055V15.6a2.5 2.5 0 0 0-.847-.132c-.605 0-1.111.374-1.353.88zm8.099-5.764-2.013 2.684v.132L87.905 20h-1.661l-1.694-2.431h-.275V20h-1.408v-7.81h1.408v4.202h.275l1.595-2.156zm2.71 5.874c-.99 0-1.738-.352-2.387-.88l.748-1.012c.473.407 1.012.682 1.64.682.593 0 .912-.198.912-.561s-.264-.473-.704-.561l-.737-.154c-1-.209-1.595-.704-1.595-1.65 0-1.144.825-1.848 2.156-1.848.836 0 1.595.253 2.19.792l-.782.968c-.429-.352-.89-.55-1.43-.55-.407 0-.77.154-.77.484 0 .264.176.44.737.561l.814.176c.87.187 1.518.638 1.518 1.595 0 1.232-.913 1.958-2.31 1.958m13.009-8.922q.234 0 .398.164a.54.54 0 0 1 .165.398.54.54 0 0 1-.165.398.54.54 0 0 1-.398.165h-3.563v7.874h7.876v-3.562a.54.54 0 0 1 .164-.398.54.54 0 0 1 .398-.165q.234 0 .398.165a.54.54 0 0 1 .164.398v3.75a.9.9 0 0 1-.128.469.9.9 0 0 1-.34.34.9.9 0 0 1-.469.128h-8.25a.9.9 0 0 1-.469-.128.93.93 0 0 1-.346-.34.93.93 0 0 1-.123-.469v-8.25q0-.252.124-.469a.93.93 0 0 1 .345-.34.9.9 0 0 1 .469-.129zm4.875 0q.234 0 .398.164a.54.54 0 0 1 .164.398V14a.54.54 0 0 1-.164.398.54.54 0 0 1-.398.165.54.54 0 0 1-.398-.165.54.54 0 0 1-.164-.398v-.89l-3.54 3.538a.54.54 0 0 1-.398.165.54.54 0 0 1-.398-.165.54.54 0 0 1-.164-.398.54.54 0 0 1 .164-.398l3.539-3.54h-.891a.54.54 0 0 1-.398-.164.54.54 0 0 1-.164-.398.54.54 0 0 1 .164-.398.54.54 0 0 1 .398-.165z"/>
  </g>
  <defs>
    <filter id="a" width="120" height="34" x="0" y="-2" color-interpolation-filters="sRGB" filterUnits="userSpaceOnUse">
      <feFlood flood-opacity="0" result="BackgroundImageFix"/>
      <feBlend in="SourceGraphic" in2="BackgroundImageFix" result="shape"/>
      <feColorMatrix in="SourceAlpha" result="hardAlpha" values="0 0 0 0 0 0 0 0 0 0 0 0 0 0 0 0 0 0 127 0"/>
      <feOffset dy="-2"/>
      <feGaussianBlur stdDeviation="1.65"/>
      <feComposite in2="hardAlpha" k2="-1" k3="1" operator="arithmetic"/>
      <feColorMatrix values="0 0 0 0 1 0 0 0 0 1 0 0 0 0 1 0 0 0 0.11 0"/>
      <feBlend in2="shape" result="effect1_innerShadow_24_224"/>
    </filter>
  </defs>
</svg>
